img/service-legal.svg

<svg width="65" height="65" viewBox="0 0 65 65" fill="none" xmlns="http://www.w3.org/2000/svg">
<path d="M63.131 51.506C64.3269 52.7045 64.9985 54.3285 64.9985 56.0215C64.9985 57.7146 64.3269 59.3385 63.131 60.537L60.54 63.13C59.9482 63.7249 59.2442 64.1965 58.4689 64.5175C57.6935 64.8385 56.8622 65.0025 56.023 65C55.184 65.0024 54.3529 64.8384 53.5777 64.5174C52.8025 64.1964 52.0987 63.7249 51.507 63.13L30.988 42.613L28.126 45.475C28.2028 46.397 28.077 47.3246 27.7574 48.1928C27.4378 49.061 26.9322 49.8488 26.276 50.501L23.55 53.227C22.9583 53.8218 22.2545 54.2934 21.4793 54.6143C20.7042 54.9353 19.873 55.0994 19.034 55.097C18.1952 55.0993 17.3642 54.9352 16.5892 54.6142C15.8142 54.2932 15.1106 53.8217 14.519 53.227L1.86503 40.575C0.66925 39.3767 -0.00231934 37.7529 -0.00231934 36.06C-0.00231934 34.3671 0.66925 32.7434 1.86503 31.545L4.59103 28.819C5.24326 28.1629 6.03107 27.6573 6.89928 27.3377C7.76748 27.0182 8.69507 26.8923 9.61703 26.969L26.97 9.61902C26.8953 8.69769 27.0219 7.77112 27.341 6.90358C27.6601 6.03605 28.1641 5.24832 28.818 4.59502L31.543 1.87002C32.1347 1.27539 32.8383 0.803958 33.6133 0.48298C34.3883 0.162003 35.2192 -0.00214761 36.058 2.1214e-05C37.764 2.1214e-05 39.368 0.664021 40.574 1.87002L53.227 14.522C54.4226 15.7205 55.094 17.3442 55.094 19.037C55.094 20.7298 54.4226 22.3536 53.227 23.552L50.502 26.278C49.8497 26.9342 49.0617 27.4398 48.1933 27.7594C47.3249 28.079 46.3972 28.2048 45.475 28.128L42.613 30.99L63.131 51.506ZM31.164 35.784L35.783 31.165L39.243 27.705L44.398 22.551L44.798 22.951C45.126 23.279 45.556 23.443 45.986 23.443C46.416 23.443 46.846 23.279 47.175 22.951L49.9 20.226C50.0561 20.07 50.1798 19.8848 50.2643 19.681C50.3487 19.4771 50.3922 19.2587 50.3922 19.038C50.3922 18.8174 50.3487 18.5989 50.2643 18.3951C50.1798 18.1912 50.0561 18.006 49.9 17.85L37.246 5.19702C37.0901 5.04084 36.905 4.91699 36.7011 4.83256C36.4972 4.74813 36.2787 4.70479 36.058 4.70502C35.628 4.70502 35.198 4.86902 34.87 5.19702L32.144 7.92202C31.9879 8.07804 31.864 8.26332 31.7794 8.46725C31.6949 8.67118 31.6514 8.88977 31.6514 9.11052C31.6514 9.33128 31.6949 9.54987 31.7794 9.7538C31.864 9.95773 31.9879 10.143 32.144 10.299L32.544 10.699L10.694 32.546L10.294 32.146C10.1381 31.9898 9.95296 31.866 9.74909 31.7816C9.54523 31.6971 9.32669 31.6538 9.10603 31.654C8.67603 31.654 8.24603 31.818 7.91803 32.146L5.19303 34.87C5.03701 35.026 4.91325 35.2112 4.82881 35.4151C4.74437 35.6189 4.70091 35.8374 4.70091 36.058C4.70091 36.2787 4.74437 36.4971 4.82881 36.701C4.91325 36.9048 5.03701 37.09 5.19303 37.246L17.846 49.9C18.174 50.228 18.604 50.392 19.034 50.392C19.464 50.392 19.894 50.228 20.223 49.9L22.948 47.175C23.1042 47.019 23.2281 46.8337 23.3126 46.6298C23.3971 46.4259 23.4407 46.2073 23.4407 45.9865C23.4407 45.7658 23.3971 45.5472 23.3126 45.3433C23.2281 45.1393 23.1042 44.954 22.948 44.798L22.548 44.398L27.703 39.244L31.164 35.784ZM59.804 54.834L39.285 34.317L34.315 39.287L54.835 59.803C55.162 60.131 55.593 60.295 56.023 60.295C56.453 60.295 56.883 60.131 57.211 59.803L59.804 57.21C59.9601 57.054 60.0838 56.8688 60.1683 56.665C60.2527 56.4611 60.2962 56.2427 60.2962 56.022C60.2962 55.8014 60.2527 55.5829 60.1683 55.3791C60.0838 55.1752 59.9601 54.99 59.804 54.834Z" fill="#3172B9"/>
</svg>

<svg width="65" height="65" viewBox="0 0 65 65" fill="none" xmlns="http://www.w3.org/2000/svg"><path d="M63.13 51.506a6.393 6.393 0 0 1 0 9.03l-2.59 2.594A6.345 6.345 0 0 1 56.023 65a6.344 6.344 0 0 1-4.516-1.87l-20.52-20.517-2.86 2.862a6.343 6.343 0 0 1-1.85 5.026l-2.727 2.727a6.343 6.343 0 0 1-4.516 1.87 6.344 6.344 0 0 1-4.515-1.87L1.864 40.575a6.392 6.392 0 0 1 0-9.03L4.59 28.82a6.346 6.346 0 0 1 5.027-1.85L26.97 9.62a6.374 6.374 0 0 1 1.848-5.025l2.725-2.725A6.347 6.347 0 0 1 36.058 0c1.706 0 3.31.664 4.516 1.87l12.653 12.652a6.393 6.393 0 0 1 0 9.03l-2.725 2.726a6.346 6.346 0 0 1-5.027 1.85l-2.862 2.862L63.13 51.506zM31.165 35.784l4.62-4.62 3.46-3.46 5.154-5.153.4.4a1.68 1.68 0 0 0 2.377 0l2.725-2.724a1.68 1.68 0 0 0 0-2.376L37.246 5.197a1.676 1.676 0 0 0-1.188-.492c-.43 0-.86.164-1.188.492l-2.726 2.725a1.682 1.682 0 0 0 0 2.377l.4.4-21.85 21.846-.4-.4a1.675 1.675 0 0 0-1.188-.492c-.43 0-.86.164-1.188.492L5.193 34.87a1.68 1.68 0 0 0 0 2.376L17.846 49.9a1.68 1.68 0 0 0 2.377 0l2.725-2.725a1.68 1.68 0 0 0 0-2.377l-.4-.4 5.155-5.154 3.46-3.46zm28.64 19.05-20.52-20.517-4.97 4.97 20.52 20.516c.328.328.76.492 1.19.492.43 0 .86-.164 1.187-.492l2.594-2.593a1.68 1.68 0 0 0 0-2.376z" fill="#3172B9"/></svg>
